!! 00000] TT[WS
!!!OTL: Ma fandongpai
!!!ARE: Asia, China, Shanxi Jingle
!! Ethnic Group: Han
!! WII, 218 (1)
!!!SCT: J0725
!!!YEM: Copyright 1995, estate of Helmut Schaffrath.
**kern
*ICvox
*Ivox
*M2/4
*k[f#]
*G:
{8b
8b
8g
8a
=1
4dd
8cc
8b
=2
8a
16b
16a
8e
8g
=3
8f#
8e
4d}
=4
{8a
8a
8e
8g
=5
8a
8g
8f#
8e
=6
8d
8d
8B
16A
16B
=7
2d}
==
!!!AGN: Xiaodiao. XÅshi, Sushuo
!!!ONB: ESAC (Essen Associative Code) Database: CHINA
!!!AMT: simple duple
!!!AIN: vox
!!!EED: Helmut Schaffrath
!!!EEV: 1.0
*-
